2021/1/cappadocia/images/mail-icon.svg

<svg width="30" height="30" viewBox="0 0 30 30" fill="none" xmlns="http://www.w3.org/2000/svg">
<g clip-path="url(#clip0)">
<path d="M26.3377 3.58496H3.66853C1.64494 3.58496 0 5.2299 0 7.25349V22.747C0 24.7706 1.64494 26.4155 3.66853 26.4155H26.3315C28.3551 26.4155 30 24.7706 30 22.747V7.2597C30.0062 5.23611 28.3613 3.58496 26.3377 3.58496ZM28.3302 22.747C28.3302 23.8457 27.4364 24.7395 26.3377 24.7395H3.66853C2.56983 24.7395 1.67598 23.8457 1.67598 22.747V7.2597C1.67598 6.161 2.56983 5.26715 3.66853 5.26715H26.3315C27.4302 5.26715 28.324 6.161 28.324 7.2597V22.747H28.3302Z" fill="#E2AB3F"/>
<path d="M18.9201 14.8079L26.2572 8.22814C26.5986 7.91777 26.6296 7.39015 26.3193 7.04254C26.0089 6.70114 25.4813 6.6701 25.1337 6.98047L15.0157 16.0618L13.0418 14.2989C13.0356 14.2927 13.0294 14.2865 13.0294 14.2803C12.9859 14.2368 12.9425 14.1996 12.8928 14.1623L4.86054 6.97426C4.51293 6.66389 3.98531 6.69493 3.67494 7.04254C3.36458 7.39015 3.39561 7.91777 3.74322 8.22814L11.1672 14.8638L3.77426 21.7849C3.43906 22.1015 3.42044 22.6291 3.73702 22.9705C3.90461 23.1443 4.12808 23.2375 4.35154 23.2375C4.55638 23.2375 4.76122 23.163 4.92261 23.014L12.4273 15.9935L14.4633 17.8122C14.6247 17.955 14.8233 18.0233 15.0219 18.0233C15.2206 18.0233 15.4254 17.9488 15.5806 17.806L17.6725 15.9314L25.1337 23.0202C25.2951 23.1754 25.5061 23.2499 25.7109 23.2499C25.9344 23.2499 26.1517 23.163 26.3193 22.9892C26.6358 22.654 26.6234 22.1201 26.2882 21.8036L18.9201 14.8079Z" fill="#E2AB3F"/>
</g>
<defs>
<clipPath id="clip0">
<rect width="30" height="30" fill="white"/>
</clipPath>
</defs>
</svg>

<svg width="30" height="30" fill="none" xmlns="http://www.w3.org/2000/svg"><g clip-path="url(#clip0)" fill="#E2AB3F"><path d="M26.338 3.585H3.668A3.672 3.672 0 000 7.253v15.494a3.672 3.672 0 003.669 3.669H26.33A3.672 3.672 0 0030 22.747V7.26a3.668 3.668 0 00-3.662-3.675zm1.992 19.162a1.995 1.995 0 01-1.992 1.992H3.668a1.995 1.995 0 01-1.992-1.992V7.26c0-1.099.894-1.993 1.993-1.993H26.33c1.1 0 1.993.894 1.993 1.993v15.487h.006z"/><path d="M18.92 14.808l7.337-6.58a.842.842 0 00.062-1.185.842.842 0 00-1.185-.063l-10.118 9.082-1.974-1.763c-.006-.006-.013-.012-.013-.019a1.244 1.244 0 00-.136-.118L4.86 6.974a.837.837 0 00-1.186.069.837.837 0 00.068 1.185l7.424 6.636-7.393 6.92a.841.841 0 001.149 1.23l7.504-7.02 2.036 1.818a.837.837 0 001.118-.006l2.091-1.875 7.462 7.09a.837.837 0 101.154-1.217l-7.368-6.996z"/></g><defs><clipPath id="clip0"><path fill="#fff" d="M0 0h30v30H0z"/></clipPath></defs></svg>
